X:1
T: Flirtation
P:Kerr's Collection p.30 no.3
R:Jig
Q:180
K:G
M:6/8
L:1/16
G2B2d2 g4b2|a2g2f2 e4g2|d4g2 B4e2|d2c2B2 A4B2|G2B2d2 g4b2|a2g2f2 e4g2|d4g2 B4e2|d2e2f2 g4b2|
a2^g2a2 d4b2|a2^g2a2 d'4b2|a2b2a2 g2f2e2|d4e2 f4b2|a2^g2a2 d4b2|a2^g2a2 d'4b2|a2b2a2 g2f2e2|d2e2d2 c2B2A2|
G4b2 b2a2b2|g4d2 d4d2|d4b2 b2a2b2|c'4a2 a4z2|d4b2 b2a2b2|g4d2 d4d2|e2f2g2 a4g2|f2e2d2 c2B2A2|
G2B2d2 g4b2|a2g2f2 e4g2|d4g2 B4e2|d2c2B2 A4B2|G2B2d2 g4b2|a2g2f2 e4g2|d4g2 B4e2|d2e2f2 g6||
